X: 1
M: 2/4
K: C
Q: 1/4=60
L: 1/8 
z A cd | c4 |z A/2A/2 cd | cA/2c/2 dc/2A/2|  G4 |
z A cd | c4 |z A/2A/2 cd | cA/2c/2 dc|A2  G2 | 
z A/2c/2 A/2G/2F/2G/2 | AA/2c/2 A/2G/2F/2G/2 | AA/2c/2 AG | F4 |
z c/2A/2 G/2F/2G/2A/2| G4 |]
